storage/app/icons/phosphoricons/thin/square-half-bottom-thin.svg

<svg xmlns="http://www.w3.org/2000/svg" fill="currentColor" viewBox="0 0 256 256"><path d="M200 44H56a12 12 0 0 0-12 12v144a12 12 0 0 0 12 12h144a12 12 0 0 0 12-12V56a12 12 0 0 0-12-12M56 52h144a4 4 0 0 1 4 4v68H52V56a4 4 0 0 1 4-4m52 80v72H84v-72Zm8 0h24v72h-24Zm32 0h24v72h-24Zm-96 68v-68h24v72H56a4 4 0 0 1-4-4m148 4h-20v-72h24v68a4 4 0 0 1-4 4"/></svg>

<svg xmlns="http://www.w3.org/2000/svg" viewBox="0 0 256 256" fill="currentColor"><path d="M200,44H56A12,12,0,0,0,44,56V200a12,12,0,0,0,12,12H200a12,12,0,0,0,12-12V56A12,12,0,0,0,200,44ZM56,52H200a4,4,0,0,1,4,4v68H52V56A4,4,0,0,1,56,52Zm52,80v72H84V132Zm8,0h24v72H116Zm32,0h24v72H148ZM52,200V132H76v72H56A4,4,0,0,1,52,200Zm148,4H180V132h24v68A4,4,0,0,1,200,204Z"/></svg>
